icons/numix/32x32/mimetypes/application-vnd.oasis.opendocument.text.svg

<?xml version="1.0" encoding="UTF-8" standalone="no"?>
<svg
   xmlns:dc="http://purl.org/dc/elements/1.1/"
   xmlns:cc="http://creativecommons.org/ns#"
   xmlns:rdf="http://www.w3.org/1999/02/22-rdf-syntax-ns#"
   xmlns:svg="http://www.w3.org/2000/svg"
   xmlns="http://www.w3.org/2000/svg"
   xmlns:sodipodi="http://sodipodi.sourceforge.net/DTD/sodipodi-0.dtd"
   xmlns:inkscape="http://www.inkscape.org/namespaces/inkscape"
   width="32"
   height="32"
   viewBox="0 0 32 32"
   id="svg2"
   version="1.1"
   inkscape:version="0.48.5 r10040"
   sodipodi:docname="application-vnd.oasis.opendocument.text.svg">
  <metadata
     id="metadata40">
    <rdf:RDF>
      <cc:Work
         rdf:about="">
        <dc:format>image/svg+xml</dc:format>
        <dc:type
           rdf:resource="http://purl.org/dc/dcmitype/StillImage" />
      </cc:Work>
    </rdf:RDF>
  </metadata>
  <defs
     id="defs38" />
  <sodipodi:namedview
     pagecolor="#ffffff"
     bordercolor="#666666"
     borderopacity="1"
     objecttolerance="10"
     gridtolerance="10"
     guidetolerance="10"
     inkscape:pageopacity="0"
     inkscape:pageshadow="2"
     inkscape:window-width="1280"
     inkscape:window-height="970"
     id="namedview36"
     showgrid="true"
     inkscape:zoom="11.313709"
     inkscape:cx="21.473339"
     inkscape:cy="14.720313"
     inkscape:window-x="0"
     inkscape:window-y="0"
     inkscape:window-maximized="1"
     inkscape:current-layer="svg2">
    <inkscape:grid
       type="xygrid"
       id="grid3044" />
  </sodipodi:namedview>
  <path
     style="fill:#3468ce;fill-opacity:1"
     d="M 5.335888,2.969e-4 C 4.648414,3.119e-4 4,0.6767879 4,1.3940308 L 4,30.606268 C 4,31.282757 4.687474,32 5.335888,32 l 21.327333,0 c 0.648413,0 1.335888,-0.717243 1.335888,-1.393732 l 8.92e-4,-21.6062685 -9,-8.999999599999998 z"
     id="path4-1"
     inkscape:connector-curvature="0"
     sodipodi:nodetypes="ssssssccs" />
  <path
     style="fill:#000000;fill-opacity:0.19599998"
     d="M 21,8.9999995 28,16 28,8.9999995 z"
     id="path6-4"
     inkscape:connector-curvature="0"
     sodipodi:nodetypes="cccc" />
  <path
     style="fill:#ffffff;fill-opacity:0.39200003"
     d="m 19.000306,2.969e-4 8.991594,8.9997026 -7.613262,0 c -0.67295,0 -1.378332,-0.7134896 -1.378332,-1.3864402 z"
     id="path8-6"
     inkscape:connector-curvature="0"
     sodipodi:nodetypes="ccssc" />
  <rect
     style="fill:#f9f9f9;fill-opacity:1;fill-rule:evenodd;stroke:none"
     id="rect3029"
     width="6"
     height="5"
     x="10"
     y="11" />
  <rect
     style="fill:#f9f9f9;fill-opacity:1;fill-rule:evenodd;stroke:none"
     id="rect3031"
     width="5"
     height="1"
     x="17"
     y="11" />
  <path
     style="fill:#000000;fill-opacity:0.19599998"
     d="m 4,24 0,6.667969 C 4,31.316407 4.6874999,32 5.3320309,32 L 26.667969,32 C 27.3125,32 28,31.316407 28,30.667969 L 28,24 z"
     id="path26"
     inkscape:connector-curvature="0" />
  <rect
     style="fill:#f9f9f9;fill-opacity:1;fill-rule:evenodd;stroke:none"
     id="rect3033"
     width="5"
     height="1"
     x="17"
     y="12.999999" />
  <rect
     style="fill:#f9f9f9;fill-opacity:1;fill-rule:evenodd;stroke:none"
     id="rect3035"
     width="5"
     height="1"
     x="17"
     y="14.999999" />
  <g
     style="fill:#ffffff"
     id="g28"
     transform="matrix(1.0538957,0,0,1.0538957,-0.88967469,-0.50749552)">
    <path
       d="m 10.484375,27.332031 c 0,0.25 0.0078,0.484375 0.02734,0.703125 0.02344,0.214844 0.06641,0.402344 0.128906,0.5625 0.06641,0.160156 0.160156,0.285156 0.277344,0.378906 0.117187,0.09375 0.273437,0.140626 0.46875,0.140626 0.191406,0 0.34375,-0.04688 0.460937,-0.140626 0.121094,-0.09375 0.214844,-0.21875 0.277344,-0.378906 0.06641,-0.167968 0.109375,-0.355468 0.128906,-0.570312 0.02344,-0.214844 0.03516,-0.445313 0.03516,-0.695313 0,-0.246093 -0.01172,-0.476562 -0.03516,-0.691406 -0.01953,-0.222656 -0.0625,-0.410156 -0.128906,-0.570313 -0.0625,-0.160156 -0.152344,-0.285156 -0.269531,-0.378906 -0.117188,-0.09375 -0.273438,-0.140625 -0.46875,-0.140625 -0.195313,0 -0.351563,0.04687 -0.46875,0.140625 -0.117188,0.09375 -0.210938,0.222656 -0.277344,0.386719 -0.0625,0.160156 -0.105469,0.347656 -0.128906,0.5625 -0.01953,0.214844 -0.02734,0.445313 -0.02734,0.691406 m -1.152344,0 c 0,-0.878906 0.183594,-1.542969 0.542969,-1.988281 0.363281,-0.453125 0.867188,-0.675781 1.511719,-0.675781 0.667969,0 1.179687,0.222656 1.527343,0.675781 0.351563,0.445312 0.527344,1.109375 0.527344,1.988281 0,0.882813 -0.179687,1.546875 -0.535156,2 C 12.550781,29.777344 12.046875,30 11.394531,30 c -0.667969,0 -1.179687,-0.222656 -1.535156,-0.667969 -0.351563,-0.453125 -0.527344,-1.117187 -0.527344,-2"
       id="path30"
       inkscape:connector-curvature="0" />
    <path
       d="m 15.320312,29.066406 c 0.02734,0.0078 0.0625,0.0078 0.09766,0.0078 0.03906,0 0.07422,0 0.101562,0 0.257813,0 0.472657,-0.04297 0.644531,-0.132813 0.179688,-0.08594 0.320313,-0.207031 0.425782,-0.363281 0.109375,-0.152344 0.1875,-0.335937 0.230468,-0.542969 0.04688,-0.214844 0.07422,-0.449218 0.07422,-0.703125 0,-0.21875 -0.01953,-0.433593 -0.05859,-0.644531 -0.03516,-0.207031 -0.09766,-0.390625 -0.191407,-0.550781 -0.09375,-0.160157 -0.21875,-0.285157 -0.378906,-0.378907 -0.160156,-0.101562 -0.363281,-0.148437 -0.617187,-0.148437 -0.04688,0 -0.101563,0 -0.164063,0.0078 -0.0625,0 -0.117187,0.0039 -0.164063,0.01562 l 0,3.433594 m 2.722657,-1.734375 c 0,0.472657 -0.06641,0.878907 -0.203125,1.214844 -0.128906,0.332031 -0.308594,0.601563 -0.542969,0.808594 -0.230469,0.210937 -0.511719,0.363281 -0.835937,0.460937 -0.320313,0.09375 -0.671876,0.140625 -1.058594,0.140625 -0.203125,0 -0.402344,-0.0078 -0.597656,-0.03125 -0.191407,-0.01563 -0.398438,-0.04687 -0.617188,-0.08984 l 0,-4.988282 c 0.257812,-0.05078 0.5,-0.08203 0.726562,-0.09766 0.226563,-0.01563 0.4375,-0.02734 0.632813,-0.02734 0.375,0 0.71875,0.05078 1.023437,0.148438 0.3125,0.101562 0.578126,0.257812 0.792969,0.472656 0.214844,0.207031 0.378907,0.480469 0.496094,0.808594 0.125,0.324218 0.183594,0.71875 0.183594,1.179687"
       id="path32"
       inkscape:connector-curvature="0" />
    <path
       d="m 22.667969,24.78125 0,0.84375 -1.503907,0 0,4.265625 -1.140624,0 0,-4.265625 -1.5,0 0,-0.84375 4.144531,0"
       id="path34"
       inkscape:connector-curvature="0" />
  </g>
  <rect
     style="fill:#f9f9f9;fill-opacity:1;fill-rule:evenodd;stroke:none"
     id="rect3037"
     width="12"
     height="1"
     x="10"
     y="17" />
  <rect
     style="fill:#f9f9f9;fill-opacity:1;fill-rule:evenodd;stroke:none"
     id="rect3039"
     width="12"
     height="1"
     x="10"
     y="19" />
  <rect
     style="fill:#f9f9f9;fill-opacity:1;fill-rule:evenodd;stroke:none"
     id="rect3041"
     width="12"
     height="1"
     x="10"
     y="21" />
</svg>

<svg width="32" xmlns="http://www.w3.org/2000/svg" height="32" viewBox="0 0 32 32" xmlns:xlink="http://www.w3.org/1999/xlink">
<path style="fill:#3468ce" d="M 5.332031 0.667969 C 4.648438 0.667969 4 1.3125 4 2 L 4 30 C 4 30.648438 4.6875 31.332031 5.332031 31.332031 L 26.667969 31.332031 C 27.3125 31.332031 28 30.648438 28 30 L 28 9.332031 L 19.332031 0.667969 Z "/>
<path style="fill:#000;fill-opacity:.196" d="M 19.332031 8 L 19.375 8.042969 L 19.480469 8 Z M 20.667969 9.332031 L 28 16.667969 L 28 9.332031 Z "/>
<path style="fill:#fff;fill-opacity:.392" d="M 19.332031 0.667969 L 28 9.332031 L 20.667969 9.332031 C 20.019531 9.332031 19.332031 8.648438 19.332031 8 Z "/>
<path style="fill:#fff" d="M 10.71875 10.667969 L 15.28125 10.667969 C 15.492188 10.667969 15.667969 10.847656 15.667969 11.066406 L 15.667969 14.933594 C 15.667969 15.152344 15.492188 15.332031 15.28125 15.332031 L 10.71875 15.332031 C 10.507812 15.332031 10.332031 15.152344 10.332031 14.933594 L 10.332031 11.066406 C 10.332031 10.847656 10.507812 10.667969 10.71875 10.667969 Z "/>
<g style="fill:none;stroke:#fff;stroke-linecap:round;stroke-linejoin:round">
<path d="M 26.498047 17.5 L 31.501953 17.5 " transform="matrix(.66667 0 0 .66667 -.33333 -.66667)"/>
<path d="M 26.498047 20.5 L 31.501953 20.5 " transform="matrix(.66667 0 0 .66667 -.33333 -.66667)"/>
<path d="M 26.498047 23.5 L 31.501953 23.5 " transform="matrix(.66667 0 0 .66667 -.33333 -.66667)"/>
<path d="M 15.998047 26.5 L 32 26.5 " transform="matrix(.66667 0 0 .66667 -.33333 -.66667)"/>
<path d="M 15.998047 29.5 L 32 29.5 " transform="matrix(.66667 0 0 .66667 -.33333 -.66667)"/>
<path d="M 15.998047 32.5 L 32 32.5 " transform="matrix(.66667 0 0 .66667 -.33333 -.66667)"/>
</g>
<path style="fill:#000;fill-opacity:.196" d="M 4 23.332031 L 4 30 C 4 30.648438 4.6875 31.332031 5.332031 31.332031 L 26.667969 31.332031 C 27.3125 31.332031 28 30.648438 28 30 L 28 23.332031 Z "/>
<g style="fill:#fff">
<path d="M 10.484375 27.332031 C 10.484375 27.582031 10.492188 27.816406 10.511719 28.035156 C 10.535156 28.25 10.578125 28.4375 10.640625 28.597656 C 10.707031 28.757812 10.800781 28.882812 10.917969 28.976562 C 11.035156 29.070312 11.191406 29.117188 11.386719 29.117188 C 11.578125 29.117188 11.730469 29.070312 11.847656 28.976562 C 11.96875 28.882812 12.0625 28.757812 12.125 28.597656 C 12.191406 28.429688 12.234375 28.242188 12.253906 28.027344 C 12.277344 27.8125 12.289062 27.582031 12.289062 27.332031 C 12.289062 27.085938 12.277344 26.855469 12.253906 26.640625 C 12.234375 26.417969 12.191406 26.230469 12.125 26.070312 C 12.0625 25.910156 11.972656 25.785156 11.855469 25.691406 C 11.738281 25.597656 11.582031 25.550781 11.386719 25.550781 C 11.191406 25.550781 11.035156 25.597656 10.917969 25.691406 C 10.800781 25.785156 10.707031 25.914062 10.640625 26.078125 C 10.578125 26.238281 10.535156 26.425781 10.511719 26.640625 C 10.492188 26.855469 10.484375 27.085938 10.484375 27.332031 M 9.332031 27.332031 C 9.332031 26.453125 9.515625 25.789062 9.875 25.34375 C 10.238281 24.890625 10.742188 24.667969 11.386719 24.667969 C 12.054688 24.667969 12.566406 24.890625 12.914062 25.34375 C 13.265625 25.789062 13.441406 26.453125 13.441406 27.332031 C 13.441406 28.214844 13.261719 28.878906 12.90625 29.332031 C 12.550781 29.777344 12.046875 30 11.394531 30 C 10.726562 30 10.214844 29.777344 9.859375 29.332031 C 9.507812 28.878906 9.332031 28.214844 9.332031 27.332031 "/>
<path d="M 15.320312 29.066406 C 15.347656 29.074219 15.382812 29.074219 15.417969 29.074219 C 15.457031 29.074219 15.492188 29.074219 15.519531 29.074219 C 15.777344 29.074219 15.992188 29.03125 16.164062 28.941406 C 16.34375 28.855469 16.484375 28.734375 16.589844 28.578125 C 16.699219 28.425781 16.777344 28.242188 16.820312 28.035156 C 16.867188 27.820312 16.894531 27.585938 16.894531 27.332031 C 16.894531 27.113281 16.875 26.898438 16.835938 26.6875 C 16.800781 26.480469 16.738281 26.296875 16.644531 26.136719 C 16.550781 25.976562 16.425781 25.851562 16.265625 25.757812 C 16.105469 25.65625 15.902344 25.609375 15.648438 25.609375 C 15.601562 25.609375 15.546875 25.609375 15.484375 25.617188 C 15.421875 25.617188 15.367188 25.621094 15.320312 25.632812 L 15.320312 29.066406 M 18.042969 27.332031 C 18.042969 27.804688 17.976562 28.210938 17.839844 28.546875 C 17.710938 28.878906 17.53125 29.148438 17.296875 29.355469 C 17.066406 29.566406 16.785156 29.71875 16.460938 29.816406 C 16.140625 29.910156 15.789062 29.957031 15.402344 29.957031 C 15.199219 29.957031 15 29.949219 14.804688 29.925781 C 14.613281 29.910156 14.40625 29.878906 14.1875 29.835938 L 14.1875 24.847656 C 14.445312 24.796875 14.6875 24.765625 14.914062 24.75 C 15.140625 24.734375 15.351562 24.722656 15.546875 24.722656 C 15.921875 24.722656 16.265625 24.773438 16.570312 24.871094 C 16.882812 24.972656 17.148438 25.128906 17.363281 25.34375 C 17.578125 25.550781 17.742188 25.824219 17.859375 26.152344 C 17.984375 26.476562 18.042969 26.871094 18.042969 27.332031 "/>
<path d="M 22.667969 24.78125 L 22.667969 25.625 L 21.164062 25.625 L 21.164062 29.890625 L 20.023438 29.890625 L 20.023438 25.625 L 18.523438 25.625 L 18.523438 24.78125 L 22.667969 24.78125 "/>
</g>
</svg>
